X:443
T:Gypsy Dance
Z:Jack Campin, http://www.campin.me.uk/
F:Jack Campin's Nine-Note Tunebook
% last edit 03-02-2013
S:J. Spencer Curwen, "Folk Songs of Many Lands"
M:3/8
L:1/8
Z:Nigel Parsons
K:GMin
z DD |d2  d|d2 c|c2  B|z AB|d A2|   B G2|(^F2 D):|
z D^F|A2 ^F|z GA|G2 ^F|z GA|B G2|   A F2| (E2 D):|
z DD |d2  d|d2 c|c2  B|z AB|d A2|[1 B G2|(^F2 D):|\
                                 [2 c2 B|  G3-   |G z2|] 

